X:1
T:Cutting Down The Pines
M:6/8
L:1/4
K:C
 A A/2 A A/2| A A/2- A A/2| G A/2 G E/2| C3| G G/2 G A/2| G/2- E D D/2|\
 D D/2 F G/2| A3/2- A D/2| D E/2 F G/2| A/2 d- d d/2| d c/2 A G/2|\
 A3| F D/2 E C/2| D E/2 F- G/2| A/2 A G E/2| D3|||
